flaticon/coffee-shop/mixer.svg

<svg xmlns="http://www.w3.org/2000/svg" width="32" height="32" viewBox="0 0 24 24">
    <path d="M 20.800781 3.601562 C 20.800781 2.480469 19.921875 1.601562 18.800781 1.601562 L 16.800781 1.601562 C 16.800781 0.71875 16.078125 0 15.199219 0 L 8.800781 0 C 7.921875 0 7.199219 0.71875 7.199219 1.601562 L 5.199219 1.601562 C 4.078125 1.601562 3.199219 2.480469 3.199219 3.601562 C 3.199219 4.601562 3.902344 5.410156 4.851562 5.570312 L 6.800781 16.476562 L 5.238281 22.558594 C 5.160156 22.921875 5.238281 23.28125 5.480469 23.558594 C 5.679688 23.839844 6.039062 24 6.398438 24 L 17.601562 24 C 17.960938 24 18.320312 23.921875 18.558594 23.601562 C 18.800781 23.28125 18.878906 22.921875 18.800781 22.558594 L 17.21875 16.386719 L 19.148438 5.570312 C 20.097656 5.410156 20.800781 4.601562 20.800781 3.601562 Z M 8.800781 0.800781 L 15.199219 0.800781 C 15.640625 0.800781 16 1.160156 16 1.601562 L 8 1.601562 C 8 1.160156 8.359375 0.800781 8.800781 0.800781 Z M 4 3.601562 C 4 2.921875 4.519531 2.398438 5.199219 2.398438 L 18.800781 2.398438 C 19.480469 2.398438 20 2.921875 20 3.601562 C 20 4.28125 19.480469 4.800781 18.800781 4.800781 L 5.199219 4.800781 C 4.519531 4.800781 4 4.28125 4 3.601562 Z M 17.921875 23.039062 C 17.839844 23.160156 17.71875 23.199219 17.601562 23.199219 L 6.398438 23.199219 C 6.28125 23.199219 6.160156 23.160156 6.078125 23.039062 C 6 22.960938 5.960938 22.839844 6 22.71875 L 7.519531 16.800781 L 16.480469 16.800781 L 18 22.71875 C 18.039062 22.839844 18 22.960938 17.921875 23.039062 Z M 16.441406 16 L 7.519531 16 L 5.679688 5.601562 L 18.28125 5.601562 Z M 16.441406 16"/>
    <path d="M5.601562 4L18.398438 4C18.640625 4 18.800781 3.839844 18.800781 3.601562 18.800781 3.359375 18.640625 3.199219 18.398438 3.199219L5.601562 3.199219C5.359375 3.199219 5.199219 3.359375 5.199219 3.601562 5.199219 3.839844 5.359375 4 5.601562 4zM14 13.601562L14.996094 13.601562 14.800781 14.71875C14.761719 14.960938 14.921875 15.160156 15.121094 15.199219 15.160156 15.199219 15.160156 15.199219 15.199219 15.199219 15.398438 15.199219 15.558594 15.078125 15.601562 14.878906L16.578125 9.328125C16.589844 9.292969 16.597656 9.257812 16.597656 9.21875L16.800781 8.078125C16.839844 7.839844 16.679688 7.640625 16.480469 7.601562 16.238281 7.558594 16.039062 7.71875 16 7.921875L15.84375 8.800781 14.800781 8.800781C14.558594 8.800781 14.398438 8.960938 14.398438 9.199219 14.398438 9.441406 14.558594 9.601562 14.800781 9.601562L15.703125 9.601562 15.492188 10.800781 14.398438 10.800781C14.160156 10.800781 14 10.960938 14 11.199219 14 11.441406 14.160156 11.601562 14.398438 11.601562L15.351562 11.601562 15.140625 12.800781 14 12.800781C13.761719 12.800781 13.601562 12.960938 13.601562 13.199219 13.601562 13.441406 13.761719 13.601562 14 13.601562zM13.601562 18L10.398438 18C9.28125 18 8.398438 18.878906 8.398438 20 8.398438 21.121094 9.28125 22 10.398438 22L13.601562 22C14.71875 22 15.601562 21.121094 15.601562 20 15.601562 18.878906 14.71875 18 13.601562 18zM13.601562 21.199219L10.398438 21.199219C9.71875 21.199219 9.199219 20.679688 9.199219 20 9.199219 19.320312 9.71875 18.800781 10.398438 18.800781L13.601562 18.800781C14.28125 18.800781 14.800781 19.320312 14.800781 20 14.800781 20.679688 14.28125 21.199219 13.601562 21.199219zM13.601562 21.199219"/>
    <path d="M 12.800781 19.601562 L 11.199219 19.601562 C 10.960938 19.601562 10.800781 19.761719 10.800781 20 C 10.800781 20.238281 10.960938 20.398438 11.199219 20.398438 L 12.800781 20.398438 C 13.039062 20.398438 13.199219 20.238281 13.199219 20 C 13.199219 19.761719 13.039062 19.601562 12.800781 19.601562 Z M 12.800781 19.601562"/>
</svg>

<svg xmlns="http://www.w3.org/2000/svg" width="32" height="32" viewBox="0 0 24 24">
    <path d="M20.8 3.602c0-1.122-.878-2-2-2h-2C16.8.719 16.079 0 15.2 0H8.8c-.878 0-1.6.719-1.6 1.602h-2c-1.122 0-2 .878-2 2 0 1 .702 1.808 1.652 1.968L6.8 16.477l-1.563 6.082c-.078.363 0 .722.242 1 .2.28.56.441.918.441h11.204c.359 0 .718-.078.957-.398.242-.32.32-.68.242-1.043l-1.582-6.172 1.93-10.817A1.975 1.975 0 0 0 20.8 3.602zM8.8.8h6.4c.44 0 .8.36.8.8H8c0-.44.36-.8.8-.8zM4 3.6c0-.68.52-1.203 1.2-1.203h13.6c.68 0 1.2.524 1.2 1.204 0 .68-.52 1.199-1.2 1.199H5.2C4.52 4.8 4 4.28 4 3.6zM17.922 23.04a.367.367 0 0 1-.32.16H6.398a.367.367 0 0 1-.32-.16.315.315 0 0 1-.078-.32L7.52 16.8h8.96L18 22.719c.04.12 0 .242-.078.32zM16.442 16H7.52L5.68 5.602H18.28zm0 0"/>
    <path d="M5.602 4h12.796c.243 0 .403-.16.403-.398 0-.243-.16-.403-.403-.403H5.602c-.243 0-.403.16-.403.403 0 .238.16.398.403.398zm0 0M14 13.602h.996l-.195 1.117a.415.415 0 0 0 .32.48h.078c.2 0 .36-.12.403-.32l.976-5.55a.339.339 0 0 0 .02-.11l.203-1.14a.413.413 0 0 0-.32-.477.41.41 0 0 0-.481.32l-.156.879H14.8c-.242 0-.403.16-.403.398 0 .242.16.403.403.403h.902l-.21 1.199h-1.095c-.238 0-.398.16-.398.398 0 .242.16.403.398.403h.954L15.14 12.8H14c-.238 0-.398.16-.398.398 0 .242.16.403.398.403zm0 0M13.602 18h-3.204c-1.117 0-2 .879-2 2s.883 2 2 2h3.204c1.117 0 2-.879 2-2s-.883-2-2-2zm0 3.2h-3.204c-.68 0-1.199-.52-1.199-1.2 0-.68.52-1.2 1.2-1.2h3.203c.68 0 1.199.52 1.199 1.2 0 .68-.52 1.2-1.2 1.2zm0 0"/>
    <path d="M12.8 19.602h-1.6c-.24 0-.4.16-.4.398 0 .238.16.398.4.398h1.6c.24 0 .4-.16.4-.398 0-.238-.16-.398-.4-.398zm0 0"/>
</svg>
